svg/editor/paragraph_fill.svg

<?xml version="1.0" encoding="UTF-8"?>
<svg width="24px" height="24px" viewBox="0 0 24 24" version="1.1" xmlns="http://www.w3.org/2000/svg" xmlns:xlink="http://www.w3.org/1999/xlink">
    <title>paragraph_fill</title>
    <g id="页面-1" stroke="none" stroke-width="1" fill="none" fill-rule="evenodd">
        <g id="Editor" transform="translate(-528.000000, -144.000000)">
            <g id="paragraph_fill" transform="translate(528.000000, 144.000000)">
                 <path d="M24,0 L24,24 L0,24 L0,0 L24,0 Z M12.5934901,23.257841 L12.5819402,23.2595131 L12.5108777,23.2950439 L12.4918791,23.2987469 L12.4918791,23.2987469 L12.4767152,23.2950439 L12.4056548,23.2595131 C12.3958229,23.2563662 12.3870493,23.2590235 12.3821421,23.2649074 L12.3780323,23.275831 L12.360941,23.7031097 L12.3658947,23.7234994 L12.3769048,23.7357139 L12.4804777,23.8096931 L12.4953491,23.8136134 L12.4953491,23.8136134 L12.5071152,23.8096931 L12.6106902,23.7357139 L12.6232938,23.7196733 L12.6232938,23.7196733 L12.6266527,23.7031097 L12.609561,23.275831 C12.6075724,23.2657013 12.6010112,23.2592993 12.5934901,23.257841 L12.5934901,23.257841 Z M12.8583906,23.1452862 L12.8445485,23.1473072 L12.6598443,23.2396597 L12.6498822,23.2499052 L12.6498822,23.2499052 L12.6471943,23.2611114 L12.6650943,23.6906389 L12.6699349,23.7034178 L12.6699349,23.7034178 L12.678386,23.7104931 L12.8793402,23.8032389 C12.8914285,23.8068999 12.9022333,23.8029875 12.9078286,23.7952264 L12.9118235,23.7811639 L12.8776777,23.1665331 C12.8752882,23.1545897 12.8674102,23.1470016 12.8583906,23.1452862 L12.8583906,23.1452862 Z M12.1430473,23.1473072 C12.1332178,23.1423925 12.1221763,23.1452606 12.1156365,23.1525954 L12.1099173,23.1665331 L12.0757714,23.7811639 C12.0751323,23.7926639 12.0828099,23.8018602 12.0926481,23.8045676 L12.108256,23.8032389 L12.3092106,23.7104931 L12.3186497,23.7024347 L12.3186497,23.7024347 L12.3225043,23.6906389 L12.340401,23.2611114 L12.337245,23.2485176 L12.337245,23.2485176 L12.3277531,23.2396597 L12.1430473,23.1473072 Z" id="MingCute" fill-rule="nonzero"></path>
                <path d="M18,2.5 C18.8284,2.5 19.5,3.17157 19.5,4 C19.5,4.77969882 18.9050879,5.420449 18.1444558,5.49313345 L18,5.5 L17.5,5.5 L17.5,18.5 L18,18.5 C18.8284,18.5 19.5,19.1716 19.5,20 C19.5,20.7796706 18.9050879,21.4204457 18.1444558,21.4931332 L18,21.5 L10,21.5 C9.17157,21.5 8.5,20.8284 8.5,20 C8.5,19.2203294 9.09488554,18.5795543 9.85553954,18.5068668 L10,18.5 L10.5,18.5 L10.5,14.5 L9.5,14.5 C6.18629,14.5 3.5,11.8137 3.5,8.5 C3.5,5.26160159 6.06557346,2.62242817 9.27506164,2.50413847 L9.5,2.5 L18,2.5 Z M14.5,5.5 L13.5,5.5 L13.5,18.5 L14.5,18.5 L14.5,5.5 Z M10.5,5.5 L9.5,5.5 C7.84315,5.5 6.5,6.84315 6.5,8.5 C6.5,10.097725 7.74892392,11.403664 9.32372764,11.4949075 L9.5,11.5 L10.5,11.5 L10.5,5.5 Z" id="形状" fill="#09244B"></path>
            </g>
        </g>
    </g>
</svg>

<svg xmlns="http://www.w3.org/2000/svg" width="24" height="24"><g fill="none" fill-rule="evenodd"><path d="M24 0v24H0V0h24ZM12.593 23.258l-.011.002-.071.035-.02.004-.014-.004-.071-.035c-.01-.004-.019-.001-.024.005l-.004.01-.017.428.005.02.01.013.104.074.015.004.012-.004.104-.074.012-.016.004-.017-.017-.427c-.002-.01-.009-.017-.017-.018Zm.265-.113-.013.002-.185.093-.01.01-.003.011.018.43.005.012.008.007.201.093c.012.004.023 0 .029-.008l.004-.014-.034-.614c-.003-.012-.01-.02-.02-.022Zm-.715.002a.023.023 0 0 0-.027.006l-.006.014-.034.614c0 .012.007.02.017.024l.015-.002.201-.093.01-.008.004-.011.017-.43-.003-.012-.01-.01-.184-.092Z"/><path fill="#09244B" d="M18 2.5a1.5 1.5 0 0 1 .144 2.993L18 5.5h-.5v13h.5a1.5 1.5 0 0 1 .144 2.993L18 21.5h-8a1.5 1.5 0 0 1-.144-2.993L10 18.5h.5v-4h-1a6 6 0 0 1-.225-11.996L9.5 2.5H18Zm-3.5 3h-1v13h1v-13Zm-4 0h-1a3 3 0 0 0-.176 5.995l.176.005h1v-6Z"/></g></svg>
